; generated by PrusaSlicer 2.3.0+win64 on 2021-07-04 at 09:49:17 UTC

; 

; external perimeters extrusion width = 0.32mm
; perimeters extrusion width = 0.32mm
; infill extrusion width = 0.32mm
; solid infill extrusion width = 0.32mm
; top infill extrusion width = 0.32mm
; support material extrusion width = 0.40mm
; first layer extrusion width = 0.32mm

M73 P0 R73
M73 Q0 S73
M201 X1000 Y1000 Z200 E5000 ; sets maximum accelerations, mm/sec^2
M203 X200 Y200 Z12 E120 ; sets maximum feedrates, mm/sec
M204 P1250 R1250 T1250 ; sets acceleration (P, T) and retract acceleration (R), mm/sec^2
M205 X8.00 Y8.00 Z0.40 E4.50 ; sets the jerk limits, mm/sec
M205 S0 T0 ; sets the minimum extruding and travel feed rate, mm/sec
M107
;TYPE:Custom
M862.3 P "MK3S" ; printer model check
M862.1 P0.4 ; nozzle diameter check
M115 U3.10.0 ; tell printer latest fw version
G90 ; use absolute coordinates
M83 ; extruder relative mode
M104 S220 ; set extruder temp
M140 S45 ; set bed temp
M190 S45 ; wait for bed temp
M109 S220 ; wait for extruder temp
G28 W ; home all without mesh bed level
G80 ; mesh bed leveling
G1 Y-3.0 F1000.0 ; go outside print area
G92 E0.0
G1 X60.0 E9.0 F1000.0 ; intro line
G1 X100.0 E12.5 F1000.0 ; intro line
G92 E0.0
M221 S95

; Don't change E values below. Excessive value can damage the printer.

G21 ; set units to millimeters
G90 ; use absolute coordinates
M83 ; use relative distances for extrusion
M900 K0
;LAYER_CHANGE
;Z:0.25
;HEIGHT:0.25
;BEFORE_LAYER_CHANGE
G92 E0.0
;0.25


G1 E-2.00000 F3000.000
G1 Z0.250 F9000.000
;AFTER_LAYER_CHANGE
;0.25
G1 X82.465 Y87.100
G1 E2.00000 F1500.000
;TYPE:Skirt
;WIDTH:0.32
G1 F1200.000
G1 X83.402 Y85.977 E0.04372
G1 X87.187 Y82.627 E0.15113
G1 X87.999 Y82.119 E0.02863
G1 X88.872 Y81.743 E0.02845
G1 X89.793 Y81.503 E0.02845
G1 X90.746 Y81.405 E0.02863
G1 X116.460 Y81.283 E0.76882
G1 X139.389 Y81.283 E0.68555
G1 X156.609 Y81.406 E0.51487
G1 X157.689 Y81.531 E0.03250
G1 X158.731 Y81.841 E0.03250
G1 X159.608 Y82.269 E0.02919
G1 X160.408 Y82.828 E0.02919
G1 X163.882 Y86.073 E0.14212
G1 X166.852 Y89.045 E0.12563
G1 X169.623 Y92.063 E0.12249
G1 X170.198 Y92.813 E0.02826
G1 X170.657 Y93.647 E0.02845
G1 X171.067 Y94.870 E0.03858
G1 X171.218 Y96.158 E0.03876
G1 X171.218 Y113.966 E0.53244
G1 X171.143 Y114.852 E0.02660
G1 X170.944 Y115.714 E0.02642
G1 X170.396 Y116.983 E0.04133
G1 X169.587 Y118.096 E0.04115
G1 X161.054 Y126.754 E0.36345
G1 X160.338 Y127.372 E0.02826
G1 X159.516 Y127.886 E0.02900
G1 X158.630 Y128.265 E0.02882
G1 X157.690 Y128.504 E0.02900
G1 X156.724 Y128.596 E0.02900
G1 X116.477 Y128.717 E1.20334
M73 P0 R72
G1 X90.569 Y128.588 E0.77462
G1 X89.722 Y128.484 E0.02550
G1 X88.904 Y128.268 E0.02531
G1 X88.122 Y127.944 E0.02531
G1 X87.385 Y127.514 E0.02550
G1 X83.459 Y124.114 E0.15528
G1 X82.631 Y123.198 E0.03692
G1 X82.019 Y122.183 E0.03545
G1 X79.314 Y116.288 E0.19390
G1 X79.017 Y115.463 E0.02623
G1 X78.839 Y114.610 E0.02605
G1 X78.781 Y113.765 E0.02531
G1 X78.820 Y95.423 E0.54840
G1 X78.994 Y94.500 E0.02808
G1 X79.307 Y93.608 E0.02826
G1 X82.072 Y87.794 E0.19251
G1 X82.435 Y87.152 E0.02204
G1 E-2.00000 F3000.000
G1 X85.048 Y96.121 F9000.000
G1 E2.00000 F1500.000
;TYPE:Support material
G1 F1200.000
G1 X85.048 Y113.759 E0.52737
G1 X85.580 Y113.759 E0.01593
G1 X85.580 Y96.241 E0.52379
G1 X86.113 Y96.241 E0.01593
G1 X86.113 Y113.759 E0.52379
G1 X86.646 Y113.759 E0.01593
G1 X86.646 Y96.241 E0.52379
G1 X87.178 Y96.241 E0.01593
G1 X87.178 Y113.759 E0.52379
G1 X87.670 Y113.759 E0.01469
G1 X87.670 Y119.474 E0.17084
G1 X87.711 Y119.474 E0.00124
G1 X87.711 Y90.526 E0.86548
G1 X88.244 Y90.526 E0.01593
G1 X88.244 Y119.474 E0.86548
G1 X88.776 Y119.474 E0.01593
G1 X88.776 Y90.526 E0.86548
G1 X89.309 Y90.526 E0.01593
G1 X89.309 Y119.474 E0.86548
G1 X89.842 Y119.474 E0.01593
G1 X89.842 Y90.526 E0.86548
G1 X90.375 Y90.526 E0.01593
G1 X90.375 Y119.593 E0.86906
G1 X116.477 Y122.451 F9000.000
G1 F1200.000
G1 X116.477 Y117.378 E0.15166
G1 X115.944 Y117.393 E0.01593
G1 X115.944 Y122.331 E0.14762
G1 X115.411 Y122.331 E0.01593
G1 X115.411 Y117.409 E0.14716
G1 X114.879 Y117.424 E0.01593
G1 X114.879 Y122.331 E0.14670
G1 X114.346 Y122.331 E0.01593
G1 X114.346 Y117.439 E0.14624
G1 X113.813 Y117.455 E0.01593
G1 X113.813 Y122.331 E0.14578
G1 X113.281 Y122.331 E0.01593
G1 X113.281 Y117.470 E0.14532
G1 X112.748 Y117.486 E0.01593
G1 X112.748 Y122.331 E0.14486
G1 X112.215 Y122.331 E0.01593
G1 X112.215 Y117.501 E0.14440
G1 X111.683 Y117.516 E0.01593
G1 X111.683 Y122.331 E0.14394
G1 X111.150 Y122.331 E0.01593
G1 X111.150 Y117.532 E0.14348
G1 X110.617 Y117.547 E0.01593
G1 X110.617 Y122.331 E0.14302
G1 X110.084 Y122.331 E0.01593
G1 X110.084 Y117.563 E0.14256
G1 X109.552 Y117.578 E0.01593
G1 X109.552 Y122.331 E0.14210
G1 X109.019 Y122.331 E0.01593
G1 X109.019 Y117.593 E0.14164
G1 X108.486 Y117.609 E0.01593
G1 X108.486 Y122.331 E0.14118
G1 X107.954 Y122.331 E0.01593
G1 X107.954 Y117.624 E0.14072
G1 X107.421 Y117.640 E0.01593
G1 X107.421 Y122.331 E0.14026
G1 X106.888 Y122.331 E0.01593
G1 X106.888 Y117.655 E0.13980
G1 X106.356 Y117.670 E0.01593
G1 X106.356 Y122.331 E0.13934
M73 Q0 S72
G1 X105.823 Y122.331 E0.01593
G1 X105.823 Y117.686 E0.13888
G1 X105.290 Y117.701 E0.01593
G1 X105.290 Y122.331 E0.13841
G1 X104.757 Y122.331 E0.01593
G1 X104.757 Y117.717 E0.13795
G1 X104.225 Y117.732 E0.01593
G1 X104.225 Y122.331 E0.13749
G1 X103.692 Y122.331 E0.01593
G1 X103.692 Y117.731 E0.13752
G1 X103.159 Y117.707 E0.01594
G1 X103.159 Y122.331 E0.13825
G1 X102.627 Y122.331 E0.01593
G1 X102.627 Y117.661 E0.13961
G1 X102.094 Y117.594 E0.01605
G1 X102.094 Y122.331 E0.14163
G1 X101.561 Y122.331 E0.01593
G1 X101.561 Y117.501 E0.14440
G1 X101.029 Y117.384 E0.01631
G1 X101.029 Y122.331 E0.14791
G1 X100.496 Y122.331 E0.01593
G1 X100.496 Y117.243 E0.15212
G1 X99.963 Y117.077 E0.01668
G1 X99.963 Y122.331 E0.15708
G1 X99.430 Y122.331 E0.01593
G1 X99.430 Y116.886 E0.16280
G1 X98.898 Y116.667 E0.01722
G1 X98.898 Y122.331 E0.16934
M73 P1 R72
M73 Q1 S72
G1 X98.365 Y122.331 E0.01593
G1 X98.365 Y116.419 E0.17674
G1 X97.832 Y116.141 E0.01797
G1 X97.832 Y122.331 E0.18506
G1 X97.300 Y122.331 E0.01593
G1 X97.300 Y115.829 E0.19439
G1 X96.767 Y115.480 E0.01903
G1 X96.767 Y122.331 E0.20481
G1 X96.234 Y122.331 E0.01593
G1 X96.234 Y115.092 E0.21644
G1 X95.702 Y114.658 E0.02054
G1 X95.702 Y122.331 E0.22940
G1 X95.169 Y122.331 E0.01593
G1 X95.169 Y114.174 E0.24389
G1 X94.636 Y113.631 E0.02273
G1 X94.636 Y122.331 E0.26010
G1 X94.103 Y122.331 E0.01593
G1 X94.103 Y113.015 E0.27851
G1 X93.571 Y112.305 E0.02654
G1 X93.571 Y122.331 E0.29975
G1 X93.038 Y122.331 E0.01593
G1 X93.038 Y111.483 E0.32434
G1 X92.766 Y111.001 E0.01653
G1 X92.505 Y110.484 E0.01731
G1 X92.505 Y122.331 E0.35419
G1 X91.973 Y122.331 E0.01593
G1 X91.973 Y109.185 E0.39304
G1 X91.811 Y108.694 E0.01545
G1 X91.646 Y108.099 E0.01848
G1 X91.440 Y107.093 E0.03068
G1 X91.440 Y122.331 E0.45558
G1 X90.907 Y122.331 E0.01593
G1 X90.907 Y87.669 E1.03632
G1 X91.440 Y87.669 E0.01593
G1 X91.440 Y102.907 E0.45558
G1 X91.646 Y101.901 E0.03068
G1 X91.811 Y101.306 E0.01848
G1 X91.973 Y100.815 E0.01545
G1 X91.973 Y87.669 E0.39304
G1 X92.505 Y87.669 E0.01593
G1 X92.505 Y99.516 E0.35419
G1 X92.766 Y98.999 E0.01731
G1 X93.038 Y98.517 E0.01653
G1 X93.038 Y87.669 E0.32434
G1 X93.571 Y87.669 E0.01593
G1 X93.571 Y97.695 E0.29975
G1 X94.103 Y96.985 E0.02654
G1 X94.103 Y87.669 E0.27851
G1 X94.636 Y87.669 E0.01593
G1 X94.636 Y96.369 E0.26010
G1 X95.169 Y95.826 E0.02273
G1 X95.169 Y87.669 E0.24389
G1 X95.702 Y87.669 E0.01593
G1 X95.702 Y95.342 E0.22940
G1 X96.234 Y94.908 E0.02054
G1 X96.234 Y87.669 E0.21644
G1 X96.767 Y87.669 E0.01593
G1 X96.767 Y94.520 E0.20481
G1 X97.300 Y94.171 E0.01903
G1 X97.300 Y87.669 E0.19439
G1 X97.832 Y87.669 E0.01593
G1 X97.832 Y93.859 E0.18507
G1 X98.365 Y93.581 E0.01797
G1 X98.365 Y87.669 E0.17674
G1 X98.898 Y87.669 E0.01593
G1 X98.898 Y93.333 E0.16934
G1 X99.430 Y93.114 E0.01722
G1 X99.430 Y87.669 E0.16280
G1 X99.963 Y87.669 E0.01593
G1 X99.963 Y92.923 E0.15708
G1 X100.496 Y92.757 E0.01668
G1 X100.496 Y87.669 E0.15212
G1 X101.029 Y87.669 E0.01593
G1 X101.029 Y92.616 E0.14791
G1 X101.561 Y92.499 E0.01631
G1 X101.561 Y87.669 E0.14440
G1 X102.094 Y87.669 E0.01593
G1 X102.094 Y92.406 E0.14164
G1 X102.627 Y92.339 E0.01605
G1 X102.627 Y87.669 E0.13961
G1 X103.159 Y87.669 E0.01593
G1 X103.159 Y92.293 E0.13825
G1 X103.692 Y92.269 E0.01594
G1 X103.692 Y87.669 E0.13752
G1 X104.225 Y87.669 E0.01593
G1 X104.225 Y92.268 E0.13750
G1 X104.757 Y92.283 E0.01593
G1 X104.757 Y87.669 E0.13796
G1 X105.290 Y87.669 E0.01593
G1 X105.290 Y92.299 E0.13842
G1 X105.823 Y92.314 E0.01593
G1 X105.823 Y87.669 E0.13888
G1 X106.356 Y87.669 E0.01593
G1 X106.356 Y92.330 E0.13934
G1 X106.888 Y92.345 E0.01593
G1 X106.888 Y87.669 E0.13980
G1 X107.421 Y87.669 E0.01593
G1 X107.421 Y92.360 E0.14026
G1 X107.954 Y92.376 E0.01593
G1 X107.954 Y87.669 E0.14072
G1 X108.486 Y87.669 E0.01593
G1 X108.486 Y92.391 E0.14118
G1 X109.019 Y92.407 E0.01593
G1 X109.019 Y87.669 E0.14164
G1 X109.552 Y87.669 E0.01593
G1 X109.552 Y92.422 E0.14210
G1 X110.084 Y92.437 E0.01593
G1 X110.084 Y87.669 E0.14256
G1 X110.617 Y87.669 E0.01593
G1 X110.617 Y92.453 E0.14302
G1 X111.150 Y92.468 E0.01593
G1 X111.150 Y87.669 E0.14348
G1 X111.683 Y87.669 E0.01593
G1 X111.683 Y92.484 E0.14394
G1 X112.215 Y92.499 E0.01593
G1 X112.215 Y87.669 E0.14440
G1 X112.748 Y87.669 E0.01593
G1 X112.748 Y92.514 E0.14486
G1 X113.281 Y92.530 E0.01593
G1 X113.281 Y87.669 E0.14532
G1 X113.813 Y87.669 E0.01593
G1 X113.813 Y92.545 E0.14578
G1 X114.346 Y92.561 E0.01593
G1 X114.346 Y87.669 E0.14624
G1 X114.879 Y87.669 E0.01593
G1 X114.879 Y92.576 E0.14670
G1 X115.411 Y92.591 E0.01593
G1 X115.411 Y87.669 E0.14716
G1 X115.944 Y87.669 E0.01593
G1 X115.944 Y92.607 E0.14762
G1 X116.477 Y92.622 E0.01593
G1 X116.477 Y87.549 E0.15167
G1 E-2.00000 F3000.000
G1 X139.383 Y87.549 F9000.000
G1 E2.00000 F1500.000
G1 F1200.000
G1 X139.383 Y93.284 E0.17146
G1 X139.916 Y93.300 E0.01593
G1 X139.916 Y87.669 E0.16834
G1 X140.448 Y87.669 E0.01593
G1 X140.448 Y93.315 E0.16880
G1 X140.981 Y93.330 E0.01593
G1 X140.981 Y87.669 E0.16926
G1 X141.514 Y87.669 E0.01593
G1 X141.514 Y93.346 E0.16972
G1 X142.046 Y93.361 E0.01593
G1 X142.046 Y87.669 E0.17018
G1 X142.579 Y87.669 E0.01593
G1 X142.579 Y93.377 E0.17064
G1 X143.112 Y93.392 E0.01593
G1 X143.112 Y87.669 E0.17110
G1 X143.644 Y87.669 E0.01593
G1 X143.644 Y93.407 E0.17156
G1 X144.177 Y93.423 E0.01593
G1 X144.177 Y87.669 E0.17202
G1 X144.710 Y87.669 E0.01593
G1 X144.710 Y93.438 E0.17248
G1 X145.243 Y93.454 E0.01593
G1 X145.243 Y87.669 E0.17294
G1 X145.775 Y87.669 E0.01593
G1 X145.775 Y93.469 E0.17340
G1 X146.308 Y93.484 E0.01593
G1 X146.308 Y87.669 E0.17386
G1 X146.841 Y87.669 E0.01593
G1 X146.841 Y93.500 E0.17432
G1 X147.373 Y93.515 E0.01593
G1 X147.373 Y87.669 E0.17478
M73 P1 R71
G1 X147.906 Y87.669 E0.01593
G1 X147.906 Y93.533 E0.17530
G1 X148.439 Y93.575 E0.01598
G1 X148.439 Y87.669 E0.17657
G1 X148.971 Y87.669 E0.01593
G1 X148.971 Y93.642 E0.17858
G1 X149.504 Y93.735 E0.01617
G1 X149.504 Y87.669 E0.18137
G1 X150.037 Y87.669 E0.01593
G1 X150.037 Y93.855 E0.18494
G1 X150.570 Y94.002 E0.01652
G1 X150.570 Y87.669 E0.18934
G1 X151.102 Y87.669 E0.01593
G1 X151.102 Y94.177 E0.19458
G1 X151.635 Y94.382 E0.01706
G1 X151.635 Y87.669 E0.20069
G1 X152.168 Y87.669 E0.01593
G1 X152.168 Y94.617 E0.20774
G1 X152.700 Y94.888 E0.01786
G1 X152.700 Y87.669 E0.21582
G1 X153.233 Y87.669 E0.01593
G1 X153.233 Y95.194 E0.22499
G1 X153.766 Y95.541 E0.01900
G1 X153.766 Y87.669 E0.23536
G1 X154.298 Y87.669 E0.01593
G1 X154.298 Y95.932 E0.24704
G1 X154.831 Y96.372 E0.02065
G1 X154.831 Y87.669 E0.26018
G1 X155.364 Y87.669 E0.01593
G1 X155.364 Y96.867 E0.27499
G1 X155.897 Y97.440 E0.02339
G1 X155.897 Y87.669 E0.29212
G1 X156.429 Y87.669 E0.01593
G1 X156.429 Y98.094 E0.31167
G1 X156.962 Y98.868 E0.02811
G1 X156.962 Y90.526 E0.24941
G1 X157.495 Y90.526 E0.01593
G1 X157.495 Y99.807 E0.27747
G1 X157.863 Y100.600 E0.02616
G1 X158.027 Y101.025 E0.01362
G1 X158.027 Y90.526 E0.31390
G1 X158.560 Y90.526 E0.01593
G1 X158.560 Y103.849 E0.39832
G1 X164.952 Y113.879 F9000.000
G1 F1200.000
G1 X164.952 Y96.241 E0.52737
G1 X164.420 Y96.241 E0.01593
G1 X164.420 Y113.759 E0.52379
G1 X163.887 Y113.759 E0.01593
G1 X163.887 Y96.241 E0.52379
G1 X163.354 Y96.241 E0.01593
G1 X163.354 Y113.759 E0.52379
M73 P2 R71
M73 Q2 S72
G1 X162.822 Y113.759 E0.01593
G1 X162.822 Y96.241 E0.52379
G1 X162.330 Y96.241 E0.01469
G1 X162.330 Y93.383 E0.08542
G1 X162.289 Y93.383 E0.00123
G1 X162.289 Y116.617 E0.69463
G1 X161.756 Y116.617 E0.01593
G1 X161.756 Y93.383 E0.69463
G1 X161.224 Y93.383 E0.01593
G1 X161.224 Y116.617 E0.69463
G1 X160.691 Y116.617 E0.01593
G1 X160.691 Y93.383 E0.69463
G1 X160.158 Y93.383 E0.01593
G1 X160.158 Y116.617 E0.69463
G1 X159.625 Y116.617 E0.01593
G1 X159.625 Y93.383 E0.69463
G1 X159.473 Y93.383 E0.00455
G1 X159.473 Y90.526 E0.08542
G1 X159.093 Y90.526 E0.01137
G1 X159.093 Y119.474 E0.86548
G1 X158.560 Y119.474 E0.01593
G1 X158.560 Y107.002 E0.37289
G1 X158.394 Y107.795 E0.02423
G1 X158.243 Y108.338 E0.01686
G1 X158.027 Y108.975 E0.02010
G1 X158.027 Y119.474 E0.31390
G1 X157.495 Y119.474 E0.01593
G1 X157.495 Y110.193 E0.27747
M73 Q2 S71
G1 X157.107 Y110.903 E0.02419
G1 X156.962 Y111.132 E0.00809
G1 X156.962 Y119.474 E0.24941
G1 X156.616 Y119.474 E0.01034
G1 X156.616 Y122.331 E0.08542
G1 X156.429 Y122.331 E0.00559
G1 X156.429 Y111.906 E0.31167
G1 X155.897 Y112.560 E0.02522
G1 X155.897 Y122.331 E0.29212
G1 X155.364 Y122.331 E0.01593
G1 X155.364 Y113.133 E0.27499
G1 X154.831 Y113.628 E0.02174
G1 X154.831 Y122.331 E0.26018
G1 X154.298 Y122.331 E0.01593
G1 X154.298 Y114.068 E0.24704
G1 X153.766 Y114.459 E0.01975
G1 X153.766 Y122.331 E0.23536
G1 X153.233 Y122.331 E0.01593
G1 X153.233 Y114.806 E0.22499
G1 X152.700 Y115.112 E0.01838
G1 X152.700 Y122.331 E0.21582
G1 X152.168 Y122.331 E0.01593
G1 X152.168 Y115.383 E0.20773
G1 X151.635 Y115.618 E0.01742
G1 X151.635 Y122.331 E0.20069
G1 X151.102 Y122.331 E0.01593
G1 X151.102 Y115.823 E0.19458
G1 X150.570 Y115.998 E0.01677
G1 X150.570 Y122.331 E0.18934
G1 X150.037 Y122.331 E0.01593
G1 X150.037 Y116.145 E0.18494
G1 X149.504 Y116.265 E0.01632
G1 X149.504 Y122.331 E0.18137
G1 X148.971 Y122.331 E0.01593
G1 X148.971 Y116.358 E0.17858
G1 X148.439 Y116.425 E0.01605
G1 X148.439 Y122.331 E0.17657
G1 X147.906 Y122.331 E0.01593
G1 X147.906 Y116.467 E0.17530
G1 X147.373 Y116.485 E0.01594
G1 X147.373 Y122.331 E0.17478
G1 X146.841 Y122.331 E0.01593
G1 X146.841 Y116.500 E0.17432
G1 X146.308 Y116.516 E0.01593
G1 X146.308 Y122.331 E0.17386
G1 X145.775 Y122.331 E0.01593
G1 X145.775 Y116.531 E0.17340
G1 X145.243 Y116.546 E0.01593
G1 X145.243 Y122.331 E0.17294
G1 X144.710 Y122.331 E0.01593
G1 X144.710 Y116.562 E0.17248
G1 X144.177 Y116.577 E0.01593
G1 X144.177 Y122.331 E0.17202
G1 X143.644 Y122.331 E0.01593
G1 X143.644 Y116.593 E0.17156
G1 X143.112 Y116.608 E0.01593
G1 X143.112 Y122.331 E0.17110
G1 X142.579 Y122.331 E0.01593
G1 X142.579 Y116.623 E0.17064
G1 X142.046 Y116.639 E0.01593
G1 X142.046 Y122.331 E0.17018
G1 X141.514 Y122.331 E0.01593
G1 X141.514 Y116.654 E0.16972
G1 X140.981 Y116.670 E0.01593
G1 X140.981 Y122.331 E0.16926
G1 X140.448 Y122.331 E0.01593
G1 X140.448 Y116.685 E0.16880
G1 X139.916 Y116.700 E0.01593
G1 X139.916 Y122.331 E0.16834
G1 X139.383 Y122.331 E0.01593
G1 X139.383 Y116.596 E0.17146
G1 E-2.00000 F3000.000
G1 X142.565 Y111.760 F9000.000
G1 E2.00000 F1500.000
;TYPE:Perimeter
G1 F1200.000
G1 X142.136 Y111.478 E0.01532
G1 X141.651 Y111.109 E0.01823
G1 X141.197 Y110.711 E0.01807
G1 X140.779 Y110.290 E0.01772
G1 X140.394 Y109.843 E0.01763
G1 X140.038 Y109.364 E0.01787
G1 X139.724 Y108.872 E0.01745
G1 X139.450 Y108.363 E0.01727
G1 X139.209 Y107.823 E0.01769
G1 X139.013 Y107.276 E0.01738
G1 X138.859 Y106.717 E0.01732
G1 X138.750 Y106.158 E0.01701
G1 X138.682 Y105.576 E0.01752
G1 X138.660 Y104.991 E0.01751
G1 X138.682 Y104.424 E0.01697
G1 X138.749 Y103.850 E0.01727
G1 X138.861 Y103.274 E0.01754
G1 X139.013 Y102.724 E0.01705
G1 X139.209 Y102.177 E0.01738
G1 X139.450 Y101.637 E0.01769
G1 X139.724 Y101.128 E0.01728
G1 X140.040 Y100.632 E0.01758
