;generated by ffslicer 1.30.2 08/20/21 17:28:30
;right_extruder_material: PLA
;layer_height: 0.2
;perimeter_shells: 2
;top_solid_layers: 4
;bottom_solid_layers: 3
;fill_density: 15%
;fill_pattern: hexagon
;base_print_speed: 50
;travel_speed: 80
;right_extruder_temperature: 200
;left_extruder_temperature: 0
;platform_temperature: 60
;right_extruder_temperature_raft0: 0
;left_extruder_temperature_raft0: 0
;right_extruder_temperature_reset: 
;left_extruder_temperature_reset: 
;start gcode
M140 S60 T0
M104 S200 T0
M104 S0 T1
G90
G28
M190 S60 T0
M109 S200 T0
M109 S0 T1
G92 E.0000
;layer_count: 50
M108 T0
G1 X123.88 Y87.36 F4800
;preExtrude:0.20
;preExtruder0
M106 S255
G1 Z.200 F420
G1 X123.88 Y87.36 F4800
G1 X124.72 Y87.56 E.1103 F1200
G1 X126.46 Y88.29 E.3513
G1 X128.07 Y89.27 E.5920
G1 X129.50 Y90.50 E.8329
G1 X130.73 Y91.93 E1.0738
G1 X131.72 Y93.54 E1.3152
G1 X132.44 Y95.29 E1.5569
G1 X132.88 Y97.12 E1.7973
G1 X133.00 Y98.68 E1.9971
G1 X133.00 Y121.32 E4.8887
G1 X132.88 Y122.88 E5.0885
G1 X132.44 Y124.71 E5.3289
G1 X131.72 Y126.46 E5.5706
G1 X130.73 Y128.07 E5.8120
G1 X129.50 Y129.50 E6.0529
G1 X128.07 Y130.73 E6.2938
G1 X126.46 Y131.72 E6.5352
G1 X124.71 Y132.44 E6.7769
G1 X122.88 Y132.88 E7.0172
G1 X121.32 Y133.00 E7.2171
G1 X98.68 Y133.00 E10.1086
G1 X97.12 Y132.88 E10.3085
G1 X95.29 Y132.44 E10.5488
G1 X93.54 Y131.72 E10.7905
G1 X91.93 Y130.73 E11.0319
G1 X90.50 Y129.50 E11.2728
G1 X89.27 Y128.07 E11.5137
G1 X88.29 Y126.46 E11.7545
G1 X87.56 Y124.72 E11.9955
G1 X87.12 Y122.88 E12.2371
G1 X87.00 Y121.31 E12.4382
G1 X87.00 Y98.69 E15.3272
;raft
;layer:0.30
;shell
G1 E10.3272 F2700
G1 Z.300 F420
G1 X95.60 Y99.01 F4200
G1 E15.3272 F2700
G1 X95.60 Y99.01 F4200
G1 X95.64 Y98.47 E15.3531 F600
G1 X95.77 Y97.95 E15.3788
G1 X95.97 Y97.46 E15.4041
G1 X96.25 Y97.00 E15.4299
G1 X96.60 Y96.60 E15.4554
G1 X97.00 Y96.25 E15.4808
G1 X97.46 Y95.97 E15.5066
G1 X97.95 Y95.77 E15.5320
G1 X98.47 Y95.64 E15.5577
G1 X99.01 Y95.60 E15.5836
G1 X120.99 Y95.60 E16.6363
G1 X121.53 Y95.64 E16.6622
G1 X122.05 Y95.77 E16.6879
G1 X122.54 Y95.97 E16.7133
G1 X123.00 Y96.25 E16.7391
G1 X123.40 Y96.60 E16.7645
G1 X123.75 Y97.00 E16.7900
G1 X124.03 Y97.46 E16.8158
G1 X124.23 Y97.95 E16.8411
G1 X124.36 Y98.47 E16.8668
G1 X124.40 Y99.01 E16.8927
G1 X124.40 Y120.99 E17.9454
G1 X124.36 Y121.53 E17.9714
G1 X124.23 Y122.05 E17.9970
G1 X124.03 Y122.54 E18.0224
G1 X123.75 Y123.00 E18.0482
G1 X123.40 Y123.40 E18.0736
G1 X123.00 Y123.75 E18.0991
G1 X122.54 Y124.03 E18.1249
G1 X122.05 Y124.23 E18.1502
G1 X121.53 Y124.36 E18.1759
G1 X120.99 Y124.40 E18.2018
G1 X99.02 Y124.40 E19.2541
G1 X98.47 Y124.36 E19.2805
G1 X97.95 Y124.23 E19.3062
G1 X97.46 Y124.03 E19.3315
G1 X97.00 Y123.75 E19.3573
G1 X96.60 Y123.40 E19.3828
G1 X96.25 Y123.00 E19.4082
G1 X95.97 Y122.54 E19.4340
G1 X95.77 Y122.05 E19.4594
G1 X95.64 Y121.53 E19.4850
G1 X95.60 Y120.99 E19.5110
G1 X95.60 Y99.01 E20.5637
G1 X95.20 Y99.00 F4200
G1 X95.25 Y98.41 E20.5921 F600
G1 X95.39 Y97.83 E20.6206
G1 X95.62 Y97.27 E20.6496
G1 X95.93 Y96.77 E20.6778
G1 X96.31 Y96.31 E20.7064
G1 X96.77 Y95.93 E20.7350
G1 X97.27 Y95.62 E20.7631
G1 X97.83 Y95.39 E20.7921
G1 X98.41 Y95.25 E20.8207
G1 X99.00 Y95.20 E20.8491
G1 X121.00 Y95.20 E21.9027
G1 X121.59 Y95.25 E21.9311
G1 X122.17 Y95.39 E21.9597
G1 X122.73 Y95.62 E21.9887
G1 X123.23 Y95.93 E22.0168
G1 X123.69 Y96.31 E22.0454
G1 X124.07 Y96.77 E22.0740
G1 X124.38 Y97.27 E22.1022
G1 X124.61 Y97.83 E22.1312
G1 X124.75 Y98.41 E22.1597
G1 X124.80 Y99.00 E22.1881
G1 X124.80 Y121.00 E23.2418
G1 X124.75 Y121.59 E23.2701
G1 X124.61 Y122.18 E23.2992
G1 X124.39 Y122.72 E23.3271
G1 X124.07 Y123.24 E23.3564
G1 X123.69 Y123.69 E23.3846
G1 X123.24 Y124.07 E23.4128
G1 X122.72 Y124.39 E23.4420
G1 X122.18 Y124.61 E23.4700
G1 X121.59 Y124.75 E23.4990
G1 X121.00 Y124.80 E23.5274
G1 X99.00 Y124.80 E24.5810
G1 X98.41 Y124.75 E24.6094
G1 X97.83 Y124.61 E24.6380
G1 X97.27 Y124.38 E24.6670
G1 X96.77 Y124.07 E24.6951
G1 X96.31 Y123.69 E24.7237
G1 X95.93 Y123.23 E24.7523
G1 X95.62 Y122.73 E24.7805
G1 X95.39 Y122.17 E24.8095
G1 X95.25 Y121.59 E24.8380
G1 X95.20 Y121.00 E24.8664
G1 X95.20 Y99.00 E25.9201
G1 E20.9201 F2700
G1 X99.20 Y99.20 F4200
G1 E25.9201 F2700
G1 X99.20 Y99.20 F4200
G1 X99.20 Y120.80 E26.9546 F600
G1 X120.80 Y120.80 E27.9891
G1 X120.80 Y99.20 E29.0237
G1 X99.20 Y99.20 E30.0582
G1 X99.60 Y99.60 F4200
G1 X99.60 Y120.40 E31.0544 F600
G1 X120.40 Y120.40 E32.0506
G1 X120.40 Y99.60 E33.0468
G1 X99.60 Y99.60 E34.0430
;infill
G1 E29.0430 F2700
G1 X121.14 Y99.37 F4200
G1 E34.0430 F2700
G1 X121.14 Y99.37 F4200
G1 X124.06 Y102.29 E34.2408 F600
G1 X124.06 Y102.86 E34.2681
G1 X121.14 Y99.94 E34.4659
G1 X121.14 Y100.50 E34.4927
G1 X124.06 Y103.42 E34.6905
G1 X124.06 Y103.99 E34.7178
G1 X121.14 Y101.07 E34.9156
G1 X121.14 Y101.63 E34.9424
G1 X124.06 Y104.55 E35.1402
G1 X124.06 Y105.12 E35.1675
G1 X121.14 Y102.20 E35.3652
G1 X121.14 Y102.77 E35.3925
G1 X124.06 Y105.69 E35.5903
G1 X124.06 Y106.25 E35.6171
G1 X121.14 Y103.33 E35.8149
G1 X121.14 Y103.90 E35.8422
G1 X124.06 Y106.82 E36.0400
G1 X124.06 Y107.38 E36.0668
G1 X121.14 Y104.46 E36.2646
G1 X121.14 Y105.03 E36.2919
G1 X124.06 Y107.95 E36.4897
G1 X124.06 Y108.51 E36.5165
G1 X121.14 Y105.59 E36.7143
G1 X121.14 Y106.16 E36.7416
G1 X124.06 Y109.08 E36.9394
G1 X124.06 Y109.65 E36.9667
G1 X121.14 Y106.73 E37.1644
G1 X121.14 Y107.29 E37.1913
G1 X124.06 Y110.21 E37.3891
G1 X124.06 Y110.78 E37.4164
G1 X121.14 Y107.86 E37.6141
G1 X121.14 Y108.42 E37.6410
G1 X124.06 Y111.34 E37.8387
G1 X124.06 Y111.91 E37.8660
G1 X121.14 Y108.99 E38.0638
G1 X121.14 Y109.55 E38.0906
G1 X124.06 Y112.47 E38.2884
G1 X124.06 Y113.04 E38.3157
G1 X121.14 Y110.12 E38.5135
G1 X121.14 Y110.69 E38.5408
G1 X124.06 Y113.61 E38.7386
G1 X124.06 Y114.17 E38.7654
G1 X121.14 Y111.25 E38.9632
G1 X121.14 Y111.82 E38.9905
G1 X124.06 Y114.74 E39.1883
G1 X124.06 Y115.30 E39.2151
G1 X121.14 Y112.38 E39.4129
G1 X121.14 Y112.95 E39.4402
G1 X124.06 Y115.87 E39.6380
G1 X124.06 Y116.43 E39.6648
G1 X121.14 Y113.51 E39.8626
G1 X121.14 Y114.08 E39.8899
G1 X124.06 Y117.00 E40.0876
G1 X124.06 Y117.56 E40.1145
G1 X121.14 Y114.65 E40.3119
G1 X121.14 Y115.21 E40.3387
G1 X124.06 Y118.13 E40.5365
G1 X124.06 Y118.70 E40.5638
G1 X121.14 Y115.78 E40.7616
G1 X121.14 Y116.34 E40.7884
G1 X124.06 Y119.26 E40.9862
G1 X124.06 Y119.83 E41.0135
G1 X121.14 Y116.91 E41.2113
G1 X121.14 Y117.47 E41.2381
G1 X124.06 Y120.39 E41.4359
G1 X124.06 Y120.96 E41.4632
G1 X121.14 Y118.04 E41.6609
G1 X121.14 Y118.61 E41.6882
G1 X124.02 Y121.48 E41.8830
G1 X123.91 Y121.94 E41.9056
G1 X121.14 Y119.17 E42.0933
G1 X121.14 Y119.74 E42.1206
G1 X123.74 Y122.34 E42.2967
G1 X123.53 Y122.70 E42.3166
G1 X121.14 Y120.30 E42.4788
G1 X121.14 Y120.87 E42.5061
G1 X123.29 Y123.01 E42.6514
G1 X123.00 Y123.30 E42.6711
G1 X120.85 Y121.14 E42.8170
G1 X120.28 Y121.14 E42.8443
G1 X122.68 Y123.54 E43.0069
G1 X122.32 Y123.75 E43.0269
G1 X119.71 Y121.14 E43.2036
G1 X119.15 Y121.14 E43.2305
G1 X121.92 Y123.91 E43.4181
G1 X121.46 Y124.02 E43.4407
G1 X118.58 Y121.14 E43.6358
G1 X118.02 Y121.14 E43.6626
G1 X120.94 Y124.06 E43.8604
G1 X120.37 Y124.06 E43.8877
G1 X117.45 Y121.14 E44.0855
G1 X116.89 Y121.14 E44.1123
G1 X119.81 Y124.06 E44.3101
G1 X119.24 Y124.06 E44.3374
G1 X116.32 Y121.14 E44.5352
G1 X115.75 Y121.14 E44.5625
G1 X118.67 Y124.06 E44.7603
G1 X118.11 Y124.06 E44.7871
G1 X115.19 Y121.14 E44.9849
G1 X114.62 Y121.14 E45.0122
G1 X117.54 Y124.06 E45.2099
G1 X116.98 Y124.06 E45.2368
G1 X114.06 Y121.14 E45.4345
G1 X113.49 Y121.14 E45.4619
G1 X116.41 Y124.06 E45.6596
G1 X115.85 Y124.06 E45.6865
G1 X112.93 Y121.14 E45.8842
G1 X112.36 Y121.14 E45.9115
G1 X115.28 Y124.06 E46.1093
G1 X114.71 Y124.06 E46.1366
G1 X111.79 Y121.14 E46.3344
G1 X111.23 Y121.14 E46.3612
G1 X114.15 Y124.06 E46.5590
G1 X113.58 Y124.06 E46.5863
G1 X110.66 Y121.14 E46.7841
G1 X110.10 Y121.14 E46.8109
G1 X113.02 Y124.06 E47.0087
G1 X112.45 Y124.06 E47.0360
G1 X109.53 Y121.14 E47.2338
G1 X108.97 Y121.14 E47.2606
G1 X111.89 Y124.06 E47.4584
G1 X111.32 Y124.06 E47.4857
G1 X108.40 Y121.14 E47.6834
G1 X107.83 Y121.14 E47.7107
G1 X110.75 Y124.06 E47.9085
G1 X110.19 Y124.06 E47.9354
G1 X107.27 Y121.14 E48.1331
G1 X106.70 Y121.14 E48.1604
G1 X109.62 Y124.06 E48.3582
G1 X109.06 Y124.06 E48.3850
G1 X106.14 Y121.14 E48.5828
G1 X105.57 Y121.14 E48.6101
G1 X108.49 Y124.06 E48.8079
G1 X107.93 Y124.06 E48.8347
G1 X105.01 Y121.14 E49.0325
G1 X104.44 Y121.14 E49.0598
G1 X107.36 Y124.06 E49.2576
G1 X106.79 Y124.06 E49.2849
G1 X103.87 Y121.14 E49.4827
G1 X103.31 Y121.14 E49.5095
G1 X106.23 Y124.06 E49.7073
G1 X105.66 Y124.06 E49.7346
G1 X102.74 Y121.14 E49.9323
G1 X102.18 Y121.14 E49.9592
G1 X105.10 Y124.06 E50.1569
G1 X104.53 Y124.06 E50.1842
G1 X101.61 Y121.14 E50.3820
G1 X101.05 Y121.14 E50.4088
G1 X103.97 Y124.06 E50.6066
G1 X103.40 Y124.06 E50.6339
G1 X100.48 Y121.14 E50.8317
G1 X99.91 Y121.14 E50.8590
G1 X102.83 Y124.06 E51.0568
G1 X102.27 Y124.06 E51.0836
G1 X99.35 Y121.14 E51.2814
G1 E46.2814 F2700
G1 X96.80 Y123.11 F4200
G1 E51.2814 F2700
G1 X96.80 Y123.11 F4200
G1 X97.20 Y123.47 E51.3072 F600
G1 X97.61 Y123.72 E51.3302
G1 X98.06 Y123.91 E51.3536
G1 X98.19 Y123.94 E51.3600
G1 X96.06 Y121.81 E51.5042
G1 X95.98 Y121.48 E51.5205
G1 X95.95 Y121.14 E51.5368
G1 X98.86 Y124.05 E51.7339
G1 X99.44 Y124.06 E51.7617
G1 X95.94 Y120.56 E51.9988
G1 X95.94 Y119.99 E52.0261
G1 X100.01 Y124.06 E52.3018
G1 X100.57 Y124.06 E52.3286
G1 X95.94 Y119.43 E52.6422
G1 X95.94 Y118.86 E52.6695
G1 X101.14 Y124.06 E53.0217
G1 X101.70 Y124.06 E53.0485
G1 X95.94 Y118.30 E53.4387
G1 X95.94 Y117.73 E53.4660
G1 X98.86 Y120.65 E53.6638
G1 X98.86 Y120.08 E53.6911
G1 X95.94 Y117.16 E53.8888
G1 X95.94 Y116.60 E53.9157
G1 X98.86 Y119.52 E54.1134
G1 X98.86 Y118.95 E54.1407
G1 X95.94 Y116.03 E54.3385
G1 X95.94 Y115.47 E54.3653
G1 X98.86 Y118.39 E54.5631
G1 X98.86 Y117.82 E54.5904
G1 X95.94 Y114.90 E54.7882
G1 X95.94 Y114.34 E54.8150
G1 X98.86 Y117.26 E55.0128
G1 X98.86 Y116.69 E55.0401
G1 X95.94 Y113.77 E55.2379
G1 X95.94 Y113.20 E55.2652
G1 X98.86 Y116.12 E55.4630
G1 X98.86 Y115.56 E55.4898
G1 X95.94 Y112.64 E55.6876
G1 X95.94 Y112.07 E55.7149
G1 X98.86 Y114.99 E55.9127
G1 X98.86 Y114.43 E55.9395
G1 X95.94 Y111.51 E56.1373
G1 X95.94 Y110.94 E56.1646
G1 X98.86 Y113.86 E56.3623
G1 X98.86 Y113.30 E56.3892
G1 X95.94 Y110.38 E56.5869
G1 X95.94 Y109.81 E56.6142
G1 X98.86 Y112.73 E56.8120
G1 X98.86 Y112.16 E56.8393
G1 X95.94 Y109.24 E57.0371
G1 X95.94 Y108.68 E57.0639
G1 X98.86 Y111.60 E57.2617
G1 X98.86 Y111.03 E57.2890
G1 X95.94 Y108.11 E57.4868
G1 X95.94 Y107.55 E57.5136
G1 X98.86 Y110.47 E57.7114
G1 X98.86 Y109.90 E57.7387
G1 X95.94 Y106.98 E57.9365
G1 X95.94 Y106.42 E57.9633
G1 X98.86 Y109.34 E58.1611
G1 X98.86 Y108.77 E58.1884
G1 X95.94 Y105.85 E58.3861
G1 X95.94 Y105.28 E58.4135
G1 X98.86 Y108.21 E58.6116
G1 X98.86 Y107.64 E58.6389
G1 X95.94 Y104.72 E58.8367
G1 X95.94 Y104.15 E58.8640
G1 X98.86 Y107.07 E59.0617
G1 X98.86 Y106.51 E59.0886
G1 X95.94 Y103.59 E59.2863
G1 X95.94 Y103.02 E59.3136
G1 X98.86 Y105.94 E59.5114
G1 X98.86 Y105.38 E59.5382
G1 X95.94 Y102.46 E59.7360
G1 X95.94 Y101.89 E59.7633
G1 X98.86 Y104.81 E59.9611
G1 X98.86 Y104.25 E59.9879
G1 X95.94 Y101.32 E60.1860
G1 X95.94 Y100.76 E60.2129
G1 X98.86 Y103.68 E60.4106
G1 X98.86 Y103.11 E60.4379
G1 X95.94 Y100.19 E60.6357
G1 X95.94 Y99.63 E60.6626
G1 X98.86 Y102.55 E60.8603
G1 X98.86 Y101.98 E60.8876
G1 X95.94 Y99.06 E61.0854
G1 X95.98 Y98.54 E61.1104
G1 X98.86 Y101.42 E61.3055
G1 X98.86 Y100.85 E61.3328
G1 X96.09 Y98.08 E61.5204
G1 X96.25 Y97.68 E61.5410
G1 X98.86 Y100.29 E61.7178
G1 X98.86 Y99.72 E61.7451
G1 X96.46 Y97.32 E61.9077
G1 X96.70 Y97.00 E61.9268
G1 X98.86 Y99.15 E62.0728
G1 X98.86 Y98.86 E62.0867
G1 X99.13 Y98.86 E62.0996
G1 X96.98 Y96.71 E62.2452
G1 X97.30 Y96.46 E62.2647
G1 X99.70 Y98.86 E62.4272
G1 X100.26 Y98.86 E62.4541
G1 X97.66 Y96.25 E62.6305
G1 X98.06 Y96.09 E62.6511
G1 X100.83 Y98.86 E62.8388
G1 X101.39 Y98.86 E62.8656
G1 X98.52 Y95.98 E63.0603
G1 X99.04 Y95.94 E63.0853
G1 X101.96 Y98.86 E63.2831
G1 X102.53 Y98.86 E63.3104
G1 X99.61 Y95.94 E63.5082
G1 X100.17 Y95.94 E63.5350
G1 X103.09 Y98.86 E63.7328
G1 X103.66 Y98.86 E63.7601
G1 X100.74 Y95.94 E63.9578
G1 X101.30 Y95.94 E63.9847
G1 X104.22 Y98.86 E64.1824
G1 X104.79 Y98.86 E64.2097
G1 X101.87 Y95.94 E64.4075
G1 X102.43 Y95.94 E64.4343
G1 X105.35 Y98.86 E64.6321
G1 X105.92 Y98.86 E64.6594
G1 X103.00 Y95.94 E64.8572
G1 X103.56 Y95.94 E64.8840
G1 X106.49 Y98.86 E65.0821
G1 X107.05 Y98.86 E65.1090
G1 X104.13 Y95.94 E65.3068
G1 X104.70 Y95.94 E65.3340
G1 X107.62 Y98.86 E65.5318
G1 X108.18 Y98.86 E65.5587
G1 X105.26 Y95.94 E65.7564
G1 X105.83 Y95.94 E65.7837
G1 X108.75 Y98.86 E65.9815
G1 X109.31 Y98.86 E66.0083
G1 X106.39 Y95.94 E66.2061
G1 X106.96 Y95.94 E66.2334
G1 X109.88 Y98.86 E66.4312
G1 X110.45 Y98.86 E66.4585
G1 X107.52 Y95.94 E66.6566
G1 X108.09 Y95.94 E66.6839
G1 X111.01 Y98.86 E66.8817
G1 X111.58 Y98.86 E66.9090
G1 X108.66 Y95.94 E67.1068
G1 X109.22 Y95.94 E67.1336
G1 X112.14 Y98.86 E67.3314
G1 X112.71 Y98.86 E67.3587
G1 X109.79 Y95.94 E67.5564
G1 X110.35 Y95.94 E67.5833
G1 X113.27 Y98.86 E67.7810
G1 X113.84 Y98.86 E67.8083
G1 X110.92 Y95.94 E68.0061
G1 X111.48 Y95.94 E68.0329
G1 X114.40 Y98.86 E68.2307
G1 X114.97 Y98.86 E68.2580
G1 X112.05 Y95.94 E68.4558
G1 X112.62 Y95.94 E68.4831
G1 X115.54 Y98.86 E68.6809
G1 X116.10 Y98.86 E68.7077
G1 X113.18 Y95.94 E68.9055
G1 X113.75 Y95.94 E68.9328
G1 X116.67 Y98.86 E69.1306
G1 X117.23 Y98.86 E69.1574
G1 X114.31 Y95.94 E69.3552
G1 X114.88 Y95.94 E69.3825
G1 X117.80 Y98.86 E69.5802
G1 X118.36 Y98.86 E69.6071
G1 X115.44 Y95.94 E69.8048
G1 X116.01 Y95.94 E69.8321
G1 X118.93 Y98.86 E70.0299
G1 X119.50 Y98.86 E70.0572
G1 X116.58 Y95.94 E70.2550
G1 X117.14 Y95.94 E70.2818
G1 X120.06 Y98.86 E70.4796
G1 X120.63 Y98.86 E70.5069
G1 X117.71 Y95.94 E70.7047
G1 X118.27 Y95.94 E70.7315
G1 X124.06 Y101.73 E71.1237
G1 X124.06 Y101.16 E71.1510
G1 X118.84 Y95.94 E71.5045
G1 X119.40 Y95.94 E71.5314
G1 X124.06 Y100.59 E71.8467
G1 X124.06 Y100.03 E71.8735
G1 X119.97 Y95.94 E72.1505
G1 X120.54 Y95.94 E72.1778
G1 X124.06 Y99.46 E72.4162
G1 X124.05 Y98.89 E72.4435
G1 X121.11 Y95.95 E72.6427
G1 X121.48 Y95.98 E72.6604
G1 X121.78 Y96.05 E72.6752
G1 X123.94 Y98.22 E72.8218
G1 X123.91 Y98.06 E72.8296
G1 X123.72 Y97.61 E72.8530
G1 X123.47 Y97.20 E72.8760
G1 X122.95 Y96.66 E72.9119
;percent
;layer:0.20
;shell
G1 E67.9119 F2700
G1 Z.500 F420
G1 X95.60 Y99.01 F4800
G1 E72.9119 F2700
G1 X95.60 Y99.01 F4800
G1 X95.64 Y98.47 E72.9292 F1500
G1 X95.77 Y97.95 E72.9463
G1 X95.97 Y97.46 E72.9632
G1 X96.25 Y97.00 E72.9804
G1 X96.60 Y96.60 E72.9974
G1 X97.00 Y96.25 E73.0144
G1 X97.46 Y95.97 E73.0316
G1 X97.95 Y95.77 E73.0485
G1 X98.47 Y95.64 E73.0656
G1 X99.01 Y95.60 E73.0829
G1 X120.99 Y95.60 E73.7847
G1 X121.53 Y95.64 E73.8020
G1 X122.05 Y95.77 E73.8191
G1 X122.54 Y95.97 E73.8360
G1 X123.00 Y96.25 E73.8532
G1 X123.40 Y96.60 E73.8702
G1 X123.75 Y97.00 E73.8871
G1 X124.03 Y97.46 E73.9043
G1 X124.23 Y97.95 E73.9212
G1 X124.36 Y98.47 E73.9383
G1 X124.40 Y99.01 E73.9556
G1 X124.40 Y120.99 E74.6574
G1 X124.36 Y121.53 E74.6747
G1 X124.23 Y122.05 E74.6918
G1 X124.03 Y122.54 E74.7087
G1 X123.75 Y123.00 E74.7259
G1 X123.40 Y123.40 E74.7429
G1 X123.00 Y123.75 E74.7599
G1 X122.54 Y124.03 E74.7771
G1 X122.05 Y124.23 E74.7940
G1 X121.53 Y124.36 E74.8111
G1 X120.99 Y124.40 E74.8284
G1 X99.02 Y124.40 E75.5299
G1 X98.47 Y124.36 E75.5475
G1 X97.95 Y124.23 E75.5646
G1 X97.46 Y124.03 E75.5815
G1 X97.00 Y123.75 E75.5987
G1 X96.60 Y123.40 E75.6157
G1 X96.25 Y123.00 E75.6326
G1 X95.97 Y122.54 E75.6498
G1 X95.77 Y122.05 E75.6667
G1 X95.64 Y121.53 E75.6838
G1 X95.60 Y120.99 E75.7011
G1 X95.60 Y99.01 E76.4029
G1 X95.20 Y99.00 F4800
G1 X95.25 Y98.41 E76.4219 F1500
G1 X95.39 Y97.83 E76.4409
G1 X95.62 Y97.27 E76.4602
G1 X95.93 Y96.77 E76.4790
G1 X96.31 Y96.31 E76.4981
G1 X96.77 Y95.93 E76.5171
G1 X97.27 Y95.62 E76.5359
G1 X97.83 Y95.39 E76.5552
G1 X98.41 Y95.25 E76.5743
G1 X99.00 Y95.20 E76.5932
G1 X121.00 Y95.20 E77.2956
G1 X121.59 Y95.25 E77.3146
G1 X122.17 Y95.39 E77.3336
G1 X122.73 Y95.62 E77.3529
G1 X123.23 Y95.93 E77.3717
G1 X123.69 Y96.31 E77.3908
G1 X124.07 Y96.77 E77.4098
G1 X124.38 Y97.27 E77.4286
