; generated by PrusaSlicer 2.5.2+win64 on 2023-05-05 at 14:41:53 UTC


;
;

;
;
; 

; external perimeters extrusion width = 0.45mm
; perimeters extrusion width = 0.45mm
; infill extrusion width = 0.45mm
; solid infill extrusion width = 0.45mm
; top infill extrusion width = 0.40mm
; first layer extrusion width = 0.42mm

M73 P0 R36
M201 X2500 Y2500 Z400 E5000 ; sets maximum accelerations, mm/sec^2
M203 X180 Y180 Z12 E80 ; sets maximum feedrates, mm / sec
M204 P1250 R1250 T2500 ; sets acceleration (P, T) and retract acceleration (R), mm/sec^2
M205 X8.00 Y8.00 Z2.00 E10.00 ; sets the jerk limits, mm/sec
M205 S0 T0 ; sets the minimum extruding and travel feed rate, mm/sec
M107
M190 S60 ; set bed temperature and wait for it to be reached
M104 S215 ; set temperature
;TYPE:Custom
TESTCODE
M109 S215 ; set temperature and wait for it to be reached
G21 ; set units to millimeters
G90 ; use absolute coordinates
M83 ; use relative distances for extrusion
M900 K0.2 ; Filament gcode LA 1.5
; ; Filament gcode LA 1.0
M107
;LAYER_CHANGE
;Z:0.2
;HEIGHT:0.2
;BEFORE_LAYER_CHANGE
G92 E0.0
;0.2


G1 E-3.2 F4200
G1 Z.2 F720
;AFTER_LAYER_CHANGE
;0.2
G1 Z.4
G1 X77.639 Y78.583 F9000
G1 Z.2 F720
G1 E3.2 F2400
M204 P800
;TYPE:Skirt/Brim
;WIDTH:0.42
G1 F1200
G1 X78.705 Y77.569 E.04612
G1 X80 Y77.246 E.04186
G1 X100 Y77.246 E.62709
G1 X101.417 Y77.639 E.04612
G1 X102.431 Y78.705 E.04612
G1 X102.754 Y80 E.04186
G1 X102.754 Y100 E.62709
G1 X102.361 Y101.417 E.04612
G1 X101.295 Y102.431 E.04612
G1 X100 Y102.754 E.04186
G1 X80 Y102.754 E.62709
G1 X78.583 Y102.361 E.04612
G1 X77.569 Y101.295 E.04612
G1 X77.246 Y100 E.04186
G1 X77.246 Y80 E.62709
G1 X77.623 Y78.64 E.04424
M204 P1000
G1 X77.997 Y78.752 F9000
M204 P800
G1 F1200
G1 X78.015 Y78.693 E.00195
G1 X79.06 Y77.817 E.04278
G1 X80 Y77.623 E.03008
G1 X100 Y77.623 E.62709
G1 X101.307 Y78.015 E.04278
G1 X102.183 Y79.06 E.04278
G1 X102.377 Y80 E.03008
G1 X102.377 Y100 E.62709
G1 X101.985 Y101.307 E.04278
G1 X100.94 Y102.183 E.04278
G1 X100 Y102.377 E.03008
G1 X80 Y102.377 E.62709
G1 X78.693 Y101.985 E.04278
G1 X77.817 Y100.94 E.04278
G1 X77.623 Y100 E.03008
G1 X77.623 Y80 E.62709
G1 X77.979 Y78.81 E.03895
M204 P1000
; printing object Shape-Box id:0 copy 0
G1 E-2.24 F4200
;WIPE_START
G1 F7200
G1 X78.015 Y78.693 E-.06768
G1 X79.06 Y77.817 E-.75612
G1 X79.216 Y77.784 E-.0882
;WIPE_END
G1 E-.048 F4200
G1 Z.4 F720
G1 X99.213 Y99.213 F9000
G1 Z.2 F720
G1 E3.2 F2400
M204 P800
;TYPE:Perimeter
;WIDTH:0.419999
G1 F1200
G1 X80.787 Y99.213 E.57773
G1 X80.787 Y80.787 E.57773
G1 X99.213 Y80.787 E.57773
G1 X99.213 Y99.153 E.57585
M204 P1000
G1 X99.59 Y99.59 F9000
M204 P800
;TYPE:External perimeter
G1 F1200
G1 X80.41 Y99.59 E.60137
G1 X80.41 Y80.41 E.60137
G1 X99.59 Y80.41 E.60137
G1 X99.59 Y99.53 E.59949
M204 P1000
G1 X99.204 Y99.486 F9000
G1 E-2.24 F4200
;WIPE_START
G1 F7200
G1 X97.944 Y99.535 E-.912
;WIPE_END
G1 E-.048 F4200
G1 Z.4 F720
G1 X98.333 Y80.9 F9000
G1 Z.2 F720
G1 E3.2 F2400
M204 P800
;TYPE:Solid infill
;WIDTH:0.422206
G1 F1200
G1 X98.93 Y81.497 E.02664
G1 X98.93 Y82.034 E.01692
G1 X97.966 Y81.07 E.04299
G1 X97.43 Y81.07 E.01692
G1 X98.93 Y82.57 E.06692
G1 X98.93 Y83.107 E.01692
G1 X96.893 Y81.07 E.09084
G1 X96.357 Y81.07 E.01692
G1 X98.93 Y83.643 E.11477
G1 X98.93 Y84.179 E.01692
G1 X95.821 Y81.07 E.13869
G1 X95.284 Y81.07 E.01692
G1 X98.93 Y84.716 E.16261
G1 X98.93 Y85.252 E.01692
G1 X94.748 Y81.07 E.18654
G1 X94.211 Y81.07 E.01692
G1 X98.93 Y85.789 E.21046
G1 X98.93 Y86.325 E.01692
G1 X93.675 Y81.07 E.23438
G1 X93.139 Y81.07 E.01692
G1 X98.93 Y86.861 E.25831
M73 P1 R36
G1 X98.93 Y87.398 E.01692
G1 X92.602 Y81.07 E.28223
M73 P1 R35
G1 X92.066 Y81.07 E.01692
G1 X98.93 Y87.934 E.30615
G1 X98.93 Y88.471 E.01692
G1 X91.529 Y81.07 E.33008
G1 X90.993 Y81.07 E.01692
G1 X98.93 Y89.007 E.354
G1 X98.93 Y89.543 E.01692
G1 X90.457 Y81.07 E.37793
G1 X89.92 Y81.07 E.01692
G1 X98.93 Y90.08 E.40185
G1 X98.93 Y90.616 E.01692
G1 X89.384 Y81.07 E.42577
G1 X88.847 Y81.07 E.01692
G1 X98.93 Y91.153 E.4497
G1 X98.93 Y91.689 E.01692
G1 X88.311 Y81.07 E.47362
G1 X87.775 Y81.07 E.01692
G1 X98.93 Y92.225 E.49754
G1 X98.93 Y92.762 E.01692
G1 X87.238 Y81.07 E.52147
G1 X86.702 Y81.07 E.01692
G1 X98.93 Y93.298 E.54539
G1 X98.93 Y93.834 E.01692
G1 X86.166 Y81.07 E.56931
G1 X85.629 Y81.07 E.01692
G1 X98.93 Y94.371 E.59324
G1 X98.93 Y94.907 E.01692
G1 X85.093 Y81.07 E.61716
G1 X84.556 Y81.07 E.01692
G1 X98.93 Y95.444 E.64109
G1 X98.93 Y95.98 E.01692
G1 X84.02 Y81.07 E.66501
G1 X83.484 Y81.07 E.01692
G1 X98.93 Y96.516 E.68893
G1 X98.93 Y97.053 E.01692
G1 X82.947 Y81.07 E.71286
G1 X82.411 Y81.07 E.01692
G1 X98.93 Y97.589 E.73678
G1 X98.93 Y98.126 E.01692
G1 X81.874 Y81.07 E.7607
G1 X81.338 Y81.07 E.01692
G1 X98.93 Y98.662 E.78463
G1 X98.93 Y98.93 E.00846
G1 X98.662 Y98.93 E.00846
G1 X81.07 Y81.338 E.78462
G1 X81.07 Y81.875 E.01692
G1 X98.125 Y98.93 E.7607
M73 P2 R35
G1 X97.589 Y98.93 E.01692
G1 X81.07 Y82.411 E.73678
G1 X81.07 Y82.947 E.01692
G1 X97.053 Y98.93 E.71285
G1 X96.516 Y98.93 E.01692
G1 X81.07 Y83.484 E.68893
G1 X81.07 Y84.02 E.01692
G1 X95.98 Y98.93 E.665
G1 X95.444 Y98.93 E.01692
G1 X81.07 Y84.556 E.64108
G1 X81.07 Y85.093 E.01692
G1 X94.907 Y98.93 E.61716
G1 X94.371 Y98.93 E.01692
G1 X81.07 Y85.629 E.59323
G1 X81.07 Y86.166 E.01692
G1 X93.834 Y98.93 E.56931
G1 X93.298 Y98.93 E.01692
G1 X81.07 Y86.702 E.54539
G1 X81.07 Y87.238 E.01692
G1 X92.762 Y98.93 E.52146
G1 X92.225 Y98.93 E.01692
G1 X81.07 Y87.775 E.49754
G1 X81.07 Y88.311 E.01692
G1 X91.689 Y98.93 E.47362
G1 X91.152 Y98.93 E.01692
G1 X81.07 Y88.848 E.44969
G1 X81.07 Y89.384 E.01692
G1 X90.616 Y98.93 E.42577
G1 X90.08 Y98.93 E.01692
G1 X81.07 Y89.92 E.40184
G1 X81.07 Y90.457 E.01692
G1 X89.543 Y98.93 E.37792
G1 X89.007 Y98.93 E.01692
G1 X81.07 Y90.993 E.354
G1 X81.07 Y91.53 E.01692
G1 X88.47 Y98.93 E.33007
G1 X87.934 Y98.93 E.01692
G1 X81.07 Y92.066 E.30615
G1 X81.07 Y92.602 E.01692
G1 X87.398 Y98.93 E.28223
G1 X86.861 Y98.93 E.01692
G1 X81.07 Y93.139 E.2583
G1 X81.07 Y93.675 E.01692
G1 X86.325 Y98.93 E.23438
G1 X85.788 Y98.93 E.01692
G1 X81.07 Y94.212 E.21046
G1 X81.07 Y94.748 E.01692
G1 X85.252 Y98.93 E.18653
G1 X84.716 Y98.93 E.01692
G1 X81.07 Y95.284 E.16261
G1 X81.07 Y95.821 E.01692
G1 X84.179 Y98.93 E.13868
G1 X83.643 Y98.93 E.01692
G1 X81.07 Y96.357 E.11476
G1 X81.07 Y96.893 E.01692
G1 X83.107 Y98.93 E.09084
G1 X82.57 Y98.93 E.01692
G1 X81.07 Y97.43 E.06691
G1 X81.07 Y97.966 E.01692
G1 X82.034 Y98.93 E.04299
G1 X81.497 Y98.93 E.01692
G1 X80.9 Y98.333 E.02663
M204 P1000
; stop printing object Shape-Box id:0 copy 0
M106 S84.15
;LAYER_CHANGE
;Z:0.35
;HEIGHT:0.15
;BEFORE_LAYER_CHANGE
G92 E0.0
;0.35


G1 E-2.24 F4200
;WIPE_START
G1 F7200
G1 X81.497 Y98.93 E-.468
G1 X82.034 Y98.93 E-.29725
G1 X81.846 Y98.743 E-.14675
;WIPE_END
G1 E-.048 F4200
G1 Z.4 F720
;AFTER_LAYER_CHANGE
;0.35
G1 X81.846 Y102.754 F9000
G1 Z.35 F720
G1 E3.2 F2400
;TYPE:Skirt/Brim
;WIDTH:0.42
G1 X80 Y102.754 E.04466
G1 X78.583 Y102.361 E.03557
G1 X77.569 Y101.295 E.03557
G1 X77.246 Y100 E.03229
G1 X77.246 Y80 E.4837
G1 X77.639 Y78.583 E.03557
G1 X78.705 Y77.569 E.03557
G1 X80 Y77.246 E.03229
G1 X100 Y77.246 E.4837
M73 P3 R35
G1 X101.417 Y77.639 E.03557
G1 X102.431 Y78.705 E.03557
G1 X102.754 Y80 E.03229
G1 X102.754 Y100 E.4837
G1 X102.361 Y101.417 E.03557
G1 X101.295 Y102.431 E.03557
G1 X100 Y102.754 E.03229
G1 X81.906 Y102.754 E.43759
G1 X81.906 Y102.377 F9000
G1 F2400
G1 X80 Y102.377 E.04611
G1 X78.693 Y101.985 E.033
G1 X77.817 Y100.94 E.033
G1 X77.623 Y100 E.02321
G1 X77.623 Y80 E.4837
G1 X78.015 Y78.693 E.033
G1 X79.06 Y77.817 E.033
G1 X80 Y77.623 E.02321
G1 X100 Y77.623 E.4837
G1 X101.307 Y78.015 E.033
G1 X102.183 Y79.06 E.033
G1 X102.377 Y80 E.02321
G1 X102.377 Y100 E.4837
G1 X101.985 Y101.307 E.033
G1 X100.94 Y102.183 E.033
G1 X100 Y102.377 E.02321
G1 X81.966 Y102.377 E.43614
; printing object Shape-Box id:0 copy 0
G1 E-2.24 F4200
;WIPE_START
G1 F7200
G1 X80.321 Y102.377 E-.912
;WIPE_END
G1 E-.048 F4200
G1 Z.55 F720
G1 X99.357 Y99.357 F9000
G1 Z.35 F720
G1 E3.2 F2400
M204 P800
;TYPE:Perimeter
;WIDTH:0.449999
G1 X80.643 Y99.357 E.48762
G1 X80.643 Y80.643 E.48762
G1 X99.357 Y80.643 E.48762
G1 X99.357 Y99.297 E.48605
M204 P1000
G1 X99.775 Y99.775 F9000
M204 P800
;TYPE:External perimeter
G1 F1800
G1 X80.225 Y99.775 E.50939
G1 X80.225 Y80.225 E.50939
G1 X99.775 Y80.225 E.50939
G1 X99.775 Y99.715 E.50783
M204 P1000
G1 X99.389 Y99.671 F9000
G1 X99.232 Y98.378
;TYPE:Solid infill
;WIDTH:0.454298
G1 F4800
G1 X98.566 Y99.044 E.02478
G1 X97.969 Y99.044 E.01571
G1 X99.044 Y97.969 E.04001
G1 X99.044 Y97.372 E.01571
G1 X97.372 Y99.044 E.06223
G1 X96.775 Y99.044 E.01571
G1 X99.044 Y96.775 E.08445
G1 X99.044 Y96.178 E.01571
G1 X96.178 Y99.044 E.10668
G1 X95.581 Y99.044 E.01571
G1 X99.044 Y95.581 E.1289
G1 X99.044 Y94.984 E.01571
G1 X94.984 Y99.044 E.15112
G1 X94.387 Y99.044 E.01571
G1 X99.044 Y94.387 E.17334
G1 X99.044 Y93.791 E.01571
G1 X93.791 Y99.044 E.19557
G1 X93.194 Y99.044 E.01571
G1 X99.044 Y93.194 E.21779
G1 X99.044 Y92.597 E.01571
G1 X92.597 Y99.044 E.24001
G1 X92 Y99.044 E.01571
G1 X99.044 Y92 E.26224
G1 X99.044 Y91.403 E.01571
G1 X91.403 Y99.044 E.28446
G1 X90.806 Y99.044 E.01571
G1 X99.044 Y90.806 E.30668
G1 X99.044 Y90.209 E.01571
G1 X90.209 Y99.044 E.32891
G1 X89.612 Y99.044 E.01571
G1 X99.044 Y89.612 E.35113
G1 X99.044 Y89.015 E.01571
G1 X89.015 Y99.044 E.37335
G1 X88.418 Y99.044 E.01571
G1 X99.044 Y88.418 E.39557
G1 X99.044 Y87.821 E.01571
G1 X87.821 Y99.044 E.4178
G1 X87.224 Y99.044 E.01571
G1 X99.044 Y87.224 E.44002
G1 X99.044 Y86.627 E.01571
G1 X86.627 Y99.044 E.46224
G1 X86.03 Y99.044 E.01571
G1 X99.044 Y86.03 E.48447
G1 X99.044 Y85.433 E.01571
G1 X85.433 Y99.044 E.50669
G1 X84.836 Y99.044 E.01571
G1 X99.044 Y84.836 E.52891
G1 X99.044 Y84.239 E.01571
G1 X84.239 Y99.044 E.55113
G1 X83.642 Y99.044 E.01571
G1 X99.044 Y83.642 E.57336
G1 X99.044 Y83.045 E.01571
G1 X83.045 Y99.044 E.59558
G1 X82.448 Y99.044 E.01571
G1 X99.044 Y82.448 E.6178
G1 X99.044 Y81.852 E.01571
G1 X81.852 Y99.044 E.64003
G1 X81.255 Y99.044 E.01571
G1 X99.044 Y81.255 E.66225
G1 X99.044 Y80.956 E.00786
G1 X98.745 Y80.956 E.00786
M73 P3 R34
G1 X80.956 Y98.745 E.66224
G1 X80.956 Y98.148 E.01571
G1 X98.148 Y80.956 E.64002
G1 X97.551 Y80.956 E.01571
G1 X80.956 Y97.551 E.6178
G1 X80.956 Y96.954 E.01571
G1 X96.954 Y80.956 E.59558
G1 X96.357 Y80.956 E.01571
G1 X80.956 Y96.357 E.57335
G1 X80.956 Y95.761 E.01571
G1 X95.761 Y80.956 E.55113
G1 X95.164 Y80.956 E.01571
G1 X80.956 Y95.164 E.52891
G1 X80.956 Y94.567 E.01571
G1 X94.567 Y80.956 E.50668
G1 X93.97 Y80.956 E.01571
G1 X80.956 Y93.97 E.48446
G1 X80.956 Y93.373 E.01571
G1 X93.373 Y80.956 E.46224
G1 X92.776 Y80.956 E.01571
G1 X80.956 Y92.776 E.44002
G1 X80.956 Y92.179 E.01571
G1 X92.179 Y80.956 E.41779
G1 X91.582 Y80.956 E.01571
G1 X80.956 Y91.582 E.39557
G1 X80.956 Y90.985 E.01571
G1 X90.985 Y80.956 E.37335
G1 X90.388 Y80.956 E.01571
G1 X80.956 Y90.388 E.35112
M73 P4 R34
G1 X80.956 Y89.791 E.01571
G1 X89.791 Y80.956 E.3289
G1 X89.194 Y80.956 E.01571
G1 X80.956 Y89.194 E.30668
G1 X80.956 Y88.597 E.01571
G1 X88.597 Y80.956 E.28445
G1 X88 Y80.956 E.01571
G1 X80.956 Y88 E.26223
G1 X80.956 Y87.403 E.01571
G1 X87.403 Y80.956 E.24001
G1 X86.806 Y80.956 E.01571
G1 X80.956 Y86.806 E.21779
G1 X80.956 Y86.209 E.01571
G1 X86.209 Y80.956 E.19556
G1 X85.612 Y80.956 E.01571
G1 X80.956 Y85.612 E.17334
G1 X80.956 Y85.015 E.01571
G1 X85.015 Y80.956 E.15112
G1 X84.418 Y80.956 E.01571
G1 X80.956 Y84.418 E.12889
G1 X80.956 Y83.822 E.01571
G1 X83.822 Y80.956 E.10667
G1 X83.225 Y80.956 E.01571
G1 X80.956 Y83.225 E.08445
G1 X80.956 Y82.628 E.01571
G1 X82.628 Y80.956 E.06222
G1 X82.031 Y80.956 E.01571
G1 X80.956 Y82.031 E.04
G1 X80.956 Y81.434 E.01571
G1 X81.622 Y80.768 E.02478
; stop printing object Shape-Box id:0 copy 0
M106 S170.85
;LAYER_CHANGE
;Z:0.5
;HEIGHT:0.15
;BEFORE_LAYER_CHANGE
G92 E0.0
;0.5


G1 E-2.24 F4200
;WIPE_START
G1 F7200
G1 X80.956 Y81.434 E-.52162
G1 X80.956 Y82.031 E-.33081
G1 X81.032 Y81.955 E-.05957
;WIPE_END
G1 E-.048 F4200
G1 Z.55 F720
;AFTER_LAYER_CHANGE
;0.5
G1 X77.246 Y81.955 F9000
G1 Z.5 F720
G1 E3.2 F2400
;TYPE:Skirt/Brim
;WIDTH:0.42
G1 X77.246 Y80 E.04727
G1 X77.639 Y78.583 E.03557
G1 X78.705 Y77.569 E.03557
G1 X80 Y77.246 E.03229
G1 X100 Y77.246 E.4837
G1 X101.417 Y77.639 E.03557
G1 X102.431 Y78.705 E.03557
G1 X102.754 Y80 E.03229
G1 X102.754 Y100 E.4837
G1 X102.361 Y101.417 E.03557
G1 X101.295 Y102.431 E.03557
G1 X100 Y102.754 E.03229
G1 X80 Y102.754 E.4837
G1 X78.583 Y102.361 E.03557
G1 X77.569 Y101.295 E.03557
G1 X77.246 Y100 E.03229
G1 X77.246 Y82.015 E.43497
G1 X77.623 Y82.015 F9000
G1 F2400
G1 X77.623 Y80 E.04872
G1 X78.015 Y78.693 E.033
G1 X79.06 Y77.817 E.033
G1 X80 Y77.623 E.02321
G1 X100 Y77.623 E.4837
G1 X101.307 Y78.015 E.033
G1 X102.183 Y79.06 E.033
G1 X102.377 Y80 E.02321
G1 X102.377 Y100 E.4837
G1 X101.985 Y101.307 E.033
G1 X100.94 Y102.183 E.033
G1 X100 Y102.377 E.02321
G1 X80 Y102.377 E.4837
G1 X78.693 Y101.985 E.033
G1 X77.817 Y100.94 E.033
G1 X77.623 Y100 E.02321
G1 X77.623 Y82.075 E.43352
; printing object Shape-Box id:0 copy 0
G1 E-2.24 F4200
;WIPE_START
G1 F7200
G1 X77.623 Y80.429 E-.912
;WIPE_END
G1 E-.048 F4200
G1 Z.7 F720
G1 X99.357 Y99.357 F9000
G1 Z.5 F720
G1 E3.2 F2400
M204 P800
;TYPE:Perimeter
;WIDTH:0.449999
G1 X80.643 Y99.357 E.48762
G1 X80.643 Y80.643 E.48762
G1 X99.357 Y80.643 E.48762
G1 X99.357 Y99.297 E.48605
M204 P1000
G1 X99.775 Y99.775 F9000
M204 P800
;TYPE:External perimeter
G1 F1800
G1 X80.225 Y99.775 E.50939
G1 X80.225 Y80.225 E.50939
G1 X99.775 Y80.225 E.50939
G1 X99.775 Y99.715 E.50783
M204 P1000
G1 X99.389 Y99.671 F9000
G1 E-2.24 F4200
;WIPE_START
G1 F7200
G1 X98.129 Y99.72 E-.912
;WIPE_END
G1 E-.048 F4200
G1 Z.7 F720
G1 X98.378 Y80.768 F9000
G1 Z.5 F720
G1 E3.2 F2400
;TYPE:Solid infill
;WIDTH:0.454298
G1 F4800
G1 X99.044 Y81.434 E.02478
G1 X99.044 Y82.031 E.01571
G1 X97.969 Y80.956 E.04001
G1 X97.372 Y80.956 E.01571
G1 X99.044 Y82.628 E.06223
G1 X99.044 Y83.225 E.01571
G1 X96.775 Y80.956 E.08445
G1 X96.178 Y80.956 E.01571
G1 X99.044 Y83.822 E.10668
G1 X99.044 Y84.419 E.01571
G1 X95.581 Y80.956 E.1289
G1 X94.984 Y80.956 E.01571
G1 X99.044 Y85.016 E.15112
G1 X99.044 Y85.613 E.01571
G1 X94.387 Y80.956 E.17334
G1 X93.791 Y80.956 E.01571
G1 X99.044 Y86.209 E.19557
G1 X99.044 Y86.806 E.01571
G1 X93.194 Y80.956 E.21779
G1 X92.597 Y80.956 E.01571
G1 X99.044 Y87.403 E.24001
G1 X99.044 Y88 E.01571
G1 X92 Y80.956 E.26224
G1 X91.403 Y80.956 E.01571
G1 X99.044 Y88.597 E.28446
G1 X99.044 Y89.194 E.01571
G1 X90.806 Y80.956 E.30668
G1 X90.209 Y80.956 E.01571
G1 X99.044 Y89.791 E.32891
G1 X99.044 Y90.388 E.01571
G1 X89.612 Y80.956 E.35113
G1 X89.015 Y80.956 E.01571
G1 X99.044 Y90.985 E.37335
G1 X99.044 Y91.582 E.01571
G1 X88.418 Y80.956 E.39557
G1 X87.821 Y80.956 E.01571
G1 X99.044 Y92.179 E.4178
G1 X99.044 Y92.776 E.01571
G1 X87.224 Y80.956 E.44002
G1 X86.627 Y80.956 E.01571
G1 X99.044 Y93.373 E.46224
G1 X99.044 Y93.97 E.01571
G1 X86.03 Y80.956 E.48447
G1 X85.433 Y80.956 E.01571
G1 X99.044 Y94.567 E.50669
G1 X99.044 Y95.164 E.01571
G1 X84.836 Y80.956 E.52891
G1 X84.239 Y80.956 E.01571
G1 X99.044 Y95.761 E.55113
G1 X99.044 Y96.358 E.01571
G1 X83.642 Y80.956 E.57336
G1 X83.045 Y80.956 E.01571
G1 X99.044 Y96.955 E.59558
G1 X99.044 Y97.552 E.01571
G1 X82.448 Y80.956 E.6178
G1 X81.852 Y80.956 E.01571
G1 X99.044 Y98.148 E.64003
G1 X99.044 Y98.745 E.01571
G1 X81.255 Y80.956 E.66225
G1 X80.956 Y80.956 E.00786
G1 X80.956 Y81.255 E.00786
G1 X98.745 Y99.044 E.66224
M73 P5 R34
G1 X98.148 Y99.044 E.01571
G1 X80.956 Y81.852 E.64002
G1 X80.956 Y82.449 E.01571
G1 X97.551 Y99.044 E.6178
G1 X96.954 Y99.044 E.01571
G1 X80.956 Y83.046 E.59558
G1 X80.956 Y83.643 E.01571
G1 X96.357 Y99.044 E.57335
G1 X95.761 Y99.044 E.01571
G1 X80.956 Y84.239 E.55113
G1 X80.956 Y84.836 E.01571
G1 X95.164 Y99.044 E.52891
G1 X94.567 Y99.044 E.01571
G1 X80.956 Y85.433 E.50668
G1 X80.956 Y86.03 E.01571
G1 X93.97 Y99.044 E.48446
G1 X93.373 Y99.044 E.01571
G1 X80.956 Y86.627 E.46224
G1 X80.956 Y87.224 E.01571
G1 X92.776 Y99.044 E.44002
G1 X92.179 Y99.044 E.01571
G1 X80.956 Y87.821 E.41779
G1 X80.956 Y88.418 E.01571
G1 X91.582 Y99.044 E.39557
